packages/tokens/icons/workplace/size24Px.svg

<svg viewBox="0 0 24 24" fill="none" xmlns="http://www.w3.org/2000/svg" width="1em" height="1em"><path d="M8.99999 4.54492C6.23805 5.58697 4.16145 8.02607 3.6319 11.0005M15 4.54492C17.7619 5.58697 19.8385 8.02607 20.3681 11.0005M14 20.7637C13.3586 20.9184 12.6889 21.0004 12 21.0004C11.3111 21.0004 10.6414 20.9184 9.99999 20.7637" stroke="currentColor" stroke-linecap="round"/><path d="M16.5 20V19.5C16.5 18.3954 17.3954 17.5 18.5 17.5H19.5C20.6046 17.5 21.5 18.3954 21.5 19.5V20" stroke="currentColor" stroke-linecap="round"/><path d="M19 15.5C19.8284 15.5 20.5 14.8284 20.5 14C20.5 13.1716 19.8284 12.5 19 12.5C18.1716 12.5 17.5 13.1716 17.5 14C17.5 14.8284 18.1716 15.5 19 15.5Z" stroke="currentColor" stroke-linecap="round" stroke-linejoin="round"/><path d="M2.5 20V19.5C2.5 18.3954 3.39543 17.5 4.5 17.5H5.5C6.60457 17.5 7.5 18.3954 7.5 19.5V20" stroke="currentColor" stroke-linecap="round"/><path d="M5 15.5C5.82843 15.5 6.5 14.8284 6.5 14C6.5 13.1716 5.82843 12.5 5 12.5C4.17157 12.5 3.5 13.1716 3.5 14C3.5 14.8284 4.17157 15.5 5 15.5Z" stroke="currentColor" stroke-linecap="round" stroke-linejoin="round"/><path d="M9.5 10V9.5C9.5 8.39543 10.3954 7.5 11.5 7.5H12.5C13.6046 7.5 14.5 8.39543 14.5 9.5V10" stroke="currentColor" stroke-linecap="round"/><path d="M12 5.5C12.8284 5.5 13.5 4.82843 13.5 4C13.5 3.17157 12.8284 2.5 12 2.5C11.1716 2.5 10.5 3.17157 10.5 4C10.5 4.82843 11.1716 5.5 12 5.5Z" stroke="currentColor" stroke-linecap="round" stroke-linejoin="round"/></svg>

<svg xmlns="http://www.w3.org/2000/svg" fill="none" viewBox="0 0 24 24" width="1em" height="1em"><path stroke="currentColor" stroke-linecap="round" d="M9 4.545A8.513 8.513 0 0 0 3.632 11M15 4.545A8.513 8.513 0 0 1 20.368 11M14 20.764A8.52 8.52 0 0 1 12 21a8.521 8.521 0 0 1-2-.236M16.5 20v-.5a2 2 0 0 1 2-2h1a2 2 0 0 1 2 2v.5"/><path stroke="currentColor" stroke-linecap="round" stroke-linejoin="round" d="M19 15.5a1.5 1.5 0 1 0 0-3 1.5 1.5 0 0 0 0 3Z"/><path stroke="currentColor" stroke-linecap="round" d="M2.5 20v-.5a2 2 0 0 1 2-2h1a2 2 0 0 1 2 2v.5"/><path stroke="currentColor" stroke-linecap="round" stroke-linejoin="round" d="M5 15.5a1.5 1.5 0 1 0 0-3 1.5 1.5 0 0 0 0 3Z"/><path stroke="currentColor" stroke-linecap="round" d="M9.5 10v-.5a2 2 0 0 1 2-2h1a2 2 0 0 1 2 2v.5"/><path stroke="currentColor" stroke-linecap="round" stroke-linejoin="round" d="M12 5.5a1.5 1.5 0 1 0 0-3 1.5 1.5 0 0 0 0 3Z"/></svg>
